X: 193
T: El Ha-Rahat (Em)
M: 2/4
L: 1/8
K: Em
|: "Am"A2A2 | "D"FE ED | FE ED | "Em"E3 z :: "Am"AA AG/A/ | BA A2 | "D"FE FD | "Em"E3 z :|
